Numix-Light/16/status/indicator-keyboard-Uk-1.svg

<?xml version="1.0" encoding="UTF-8" standalone="no"?>
<svg
   xmlns:dc="http://purl.org/dc/elements/1.1/"
   xmlns:cc="http://creativecommons.org/ns#"
   xmlns:rdf="http://www.w3.org/1999/02/22-rdf-syntax-ns#"
   xmlns:svg="http://www.w3.org/2000/svg"
   xmlns="http://www.w3.org/2000/svg"
   xmlns:sodipodi="http://sodipodi.sourceforge.net/DTD/sodipodi-0.dtd"
   xmlns:inkscape="http://www.inkscape.org/namespaces/inkscape"
   viewBox="0 0 16 16"
   id="svg2"
   version="1.1"
   inkscape:version="0.91 r13725"
   sodipodi:docname="indicator-keyboard-Uk-1.svg">
  <metadata
     id="metadata14">
    <rdf:RDF>
      <cc:Work
         rdf:about="">
        <dc:format>image/svg+xml</dc:format>
        <dc:type
           rdf:resource="http://purl.org/dc/dcmitype/StillImage" />
      </cc:Work>
    </rdf:RDF>
  </metadata>
  <defs
     id="defs12" />
  <sodipodi:namedview
     pagecolor="#ffffff"
     bordercolor="#666666"
     borderopacity="1"
     objecttolerance="10"
     gridtolerance="10"
     guidetolerance="10"
     inkscape:pageopacity="0"
     inkscape:pageshadow="2"
     inkscape:window-width="640"
     inkscape:window-height="480"
     id="namedview10"
     showgrid="false"
     inkscape:zoom="14.75"
     inkscape:cx="8"
     inkscape:cy="8"
     inkscape:window-x="65"
     inkscape:window-y="24"
     inkscape:window-maximized="0"
     inkscape:current-layer="svg2" />
  <path
     style="fill:#353535;fill-opacity:1"
     d="M 1.5996094 0 C 0.71320937 2.9605947e-16 0 0.71320937 0 1.5996094 L 0 14.400391 C 2.9605947e-16 15.286791 0.71320937 16 1.5996094 16 L 14.400391 16 C 15.286791 16 16 15.286791 16 14.400391 L 16 1.5996094 C 16 0.71320937 15.286791 0 14.400391 0 L 1.5996094 0 z M 8.7695312 4.1113281 L 8.7695312 8.5390625 C 8.9195313 8.3950625 9.0874375 8.2309219 9.2734375 8.0449219 C 9.4594375 7.8589219 9.6460313 7.6705156 9.8320312 7.4785156 C 10.024031 7.2865156 10.203094 7.0999219 10.371094 6.9199219 C 10.539094 6.7399219 10.684688 6.5813594 10.804688 6.4433594 L 11.505859 6.4433594 C 11.367859 6.5873594 11.211109 6.7496875 11.037109 6.9296875 C 10.863109 7.1096875 10.680281 7.2980937 10.488281 7.4960938 C 10.302281 7.6880937 10.117641 7.8765 9.9316406 8.0625 L 9.4277344 8.5664062 C 9.6137344 8.6924063 9.8114843 8.8547344 10.021484 9.0527344 C 10.237484 9.2507344 10.446391 9.4671719 10.650391 9.7011719 C 10.860391 9.9291721 11.056328 10.166109 11.236328 10.412109 C 11.422328 10.652109 11.577125 10.879703 11.703125 11.095703 L 11.011719 11.095703 C 10.867719 10.855703 10.701625 10.622531 10.515625 10.394531 C 10.335625 10.160531 10.143453 9.9403283 9.9394531 9.7363281 C 9.7414531 9.5323281 9.5418906 9.3476875 9.3378906 9.1796875 C 9.1398906 9.0116875 8.9495313 8.8698594 8.7695312 8.7558594 L 8.7695312 11.095703 L 8.1855469 11.095703 L 8.1855469 4.2207031 L 8.7695312 4.1113281 z M 2.0761719 4.859375 L 2.6894531 4.859375 L 2.6894531 8.7011719 C 2.6894531 9.0431719 2.7286406 9.34175 2.8066406 9.59375 C 2.8906406 9.83975 3.0044375 10.043078 3.1484375 10.205078 C 3.2924375 10.367078 3.4659219 10.486453 3.6699219 10.564453 C 3.8739219 10.642453 4.1015156 10.681641 4.3535156 10.681641 C 4.6055156 10.681641 4.8331094 10.642453 5.0371094 10.564453 C 5.2411094 10.486453 5.4165469 10.367078 5.5605469 10.205078 C 5.7045469 10.043078 5.8145781 9.83975 5.8925781 9.59375 C 5.9765781 9.34175 6.0195312 9.0431719 6.0195312 8.7011719 L 6.0195312 4.859375 L 6.6308594 4.859375 L 6.6308594 8.7832031 C 6.6308594 9.1252031 6.5879062 9.4460937 6.5039062 9.7460938 C 6.4259063 10.040094 6.2971875 10.297531 6.1171875 10.519531 C 5.9371875 10.741531 5.70025 10.916969 5.40625 11.042969 C 5.11825 11.168969 4.7675156 11.230469 4.3535156 11.230469 C 3.9395156 11.230469 3.5850156 11.168969 3.2910156 11.042969 C 3.0030156 10.916969 2.7698438 10.741531 2.5898438 10.519531 C 2.4098438 10.297531 2.2773594 10.040094 2.1933594 9.7460938 C 2.1153594 9.4460938 2.0761719 9.1252031 2.0761719 8.7832031 L 2.0761719 4.859375 z M 13.654297 8.8417969 L 13.923828 8.8417969 L 13.923828 12.896484 L 13.542969 12.896484 L 13.542969 9.421875 C 13.500069 9.468675 13.443247 9.5157063 13.373047 9.5664062 C 13.306747 9.6171063 13.230331 9.66805 13.144531 9.71875 C 13.058731 9.76555 12.970553 9.812575 12.876953 9.859375 C 12.783353 9.902275 12.689303 9.9375437 12.595703 9.9648438 L 12.484375 9.671875 C 12.718374 9.5899751 12.926075 9.4880813 13.109375 9.3632812 C 13.292675 9.2345813 13.474897 9.0601969 13.654297 8.8417969 z "
     id="path4" />
</svg>

<svg xmlns="http://www.w3.org/2000/svg" viewBox="0 0 16 16">
 <path d="m 1.6 0 c -0.886 0 -1.6 0.713 -1.6 1.6 l 0 12.801 c 0 0.886 0.713 1.6 1.6 1.6 l 12.801 0 c 0.886 0 1.6 -0.713 1.6 -1.6 l 0 -12.801 c 0 -0.886 -0.713 -1.6 -1.6 -1.6 l -12.801 0 z m 7.17 4.111 l 0 4.428 c 0.15 -0.144 0.318 -0.308 0.504 -0.494 c 0.186 -0.186 0.373 -0.374 0.559 -0.566 c 0.192 -0.192 0.371 -0.379 0.539 -0.559 c 0.168 -0.18 0.314 -0.339 0.434 -0.477 l 0.701 0 c -0.138 0.144 -0.295 0.306 -0.469 0.486 c -0.174 0.18 -0.357 0.368 -0.549 0.566 c -0.186 0.192 -0.371 0.38 -0.557 0.566 l -0.504 0.504 c 0.186 0.126 0.384 0.288 0.594 0.486 c 0.216 0.198 0.425 0.414 0.629 0.648 c 0.21 0.228 0.406 0.465 0.586 0.711 c 0.186 0.24 0.341 0.468 0.467 0.684 l -0.691 0 c -0.144 -0.24 -0.31 -0.473 -0.496 -0.701 c -0.18 -0.234 -0.372 -0.454 -0.576 -0.658 c -0.198 -0.204 -0.398 -0.389 -0.602 -0.557 c -0.198 -0.168 -0.388 -0.31 -0.568 -0.424 l 0 2.34 l -0.584 0 l 0 -6.875 l 0.584 -0.109 z m -6.693 0.748 l 0.613 0 l 0 3.842 c 0 0.342 0.039 0.641 0.117 0.893 c 0.084 0.246 0.198 0.449 0.342 0.611 c 0.144 0.162 0.317 0.281 0.521 0.359 c 0.204 0.078 0.432 0.117 0.684 0.117 c 0.252 0 0.48 -0.039 0.684 -0.117 c 0.204 -0.078 0.379 -0.197 0.523 -0.359 c 0.144 -0.162 0.254 -0.365 0.332 -0.611 c 0.084 -0.252 0.127 -0.551 0.127 -0.893 l 0 -3.842 l 0.611 0 l 0 3.924 c 0 0.342 -0.043 0.663 -0.127 0.963 c -0.078 0.294 -0.207 0.551 -0.387 0.773 c -0.18 0.222 -0.417 0.397 -0.711 0.523 c -0.288 0.126 -0.639 0.188 -1.053 0.188 c -0.414 0 -0.768 -0.061 -1.062 -0.188 c -0.288 -0.126 -0.521 -0.301 -0.701 -0.523 c -0.18 -0.222 -0.312 -0.479 -0.396 -0.773 c -0.078 -0.3 -0.117 -0.621 -0.117 -0.963 l 0 -3.924 z m 11.578 3.982 l 0.27 0 l 0 4.055 l -0.381 0 l 0 -3.475 c -0.043 0.047 -0.1 0.094 -0.17 0.145 c -0.066 0.051 -0.143 0.102 -0.229 0.152 c -0.086 0.047 -0.174 0.094 -0.268 0.141 c -0.094 0.043 -0.188 0.078 -0.281 0.105 l -0.111 -0.293 c 0.234 -0.082 0.442 -0.184 0.625 -0.309 c 0.183 -0.129 0.366 -0.303 0.545 -0.521 z" style="fill:#353535;fill-opacity:1"/>
</svg>
